src/pos-icons/ssh.svg

<?xml version="1.0" encoding="UTF-8"?><!DOCTYPE svg PUBLIC "-//W3C//DTD SVG 1.1//EN" "http://www.w3.org/Graphics/SVG/1.1/DTD/svg11.dtd"><svg xmlns="http://www.w3.org/2000/svg" xmlns:xlink="http://www.w3.org/1999/xlink" version="1.1" id="mdi-ssh" width="24" height="24" viewBox="0 0 24 24"><path d="M4.5,9C3.9,9 3.5,9.5 3.5,10V11.75C3.5,12.25 3.9,12.75 4.5,12.75H7V13.5H3.5V15H7.5C8.1,15 8.5,14.5 8.5,14V12.25C8.5,11.75 8.1,11.25 7.5,11.25H5V10.5H8.5V9H4.5M10.5,9C9.9,9 9.5,9.5 9.5,10V11.75C9.5,12.25 9.9,12.75 10.5,12.75H13V13.5H9.5V15H13.5C14.1,15 14.5,14.5 14.5,14V12.25C14.5,11.75 14.1,11.25 13.5,11.25H11V10.5H14.5V9H10.5M15.5,9V15H17V12.5H19V15H20.5V9H19V11H17V9H15.5Z" /></svg>

<svg height="24" viewBox="0 0 24 24" width="24" xmlns="http://www.w3.org/2000/svg"><path d="m4.5 9c-.6 0-1 .5-1 1v1.75c0 .5.4 1 1 1h2.5v.75h-3.5v1.5h4c.6 0 1-.5 1-1v-1.75c0-.5-.4-1-1-1h-2.5v-.75h3.5v-1.5zm6 0c-.6 0-1 .5-1 1v1.75c0 .5.4 1 1 1h2.5v.75h-3.5v1.5h4c.6 0 1-.5 1-1v-1.75c0-.5-.4-1-1-1h-2.5v-.75h3.5v-1.5zm5 0v6h1.5v-2.5h2v2.5h1.5v-6h-1.5v2h-2v-2z"/></svg>
